colorful-battery-indicator@aneruam/icons/battery-40-charging.svg

<?xml version="1.0" encoding="UTF-8" standalone="no"?>
<svg
   xmlns:dc="http://purl.org/dc/elements/1.1/"
   xmlns:cc="http://creativecommons.org/ns#"
   xmlns:rdf="http://www.w3.org/1999/02/22-rdf-syntax-ns#"
   xmlns:svg="http://www.w3.org/2000/svg"
   xmlns="http://www.w3.org/2000/svg"
   xmlns:sodipodi="http://sodipodi.sourceforge.net/DTD/sodipodi-0.dtd"
   xmlns:inkscape="http://www.inkscape.org/namespaces/inkscape"
   viewBox="0 0 16 16"
   version="1.1"
   id="svg6"
   sodipodi:docname="battery-low-charging-symbolic.svg"
   inkscape:version="1.0.2 (e86c870879, 2021-01-15)">
   <metadata
      id="metadata12">
      <rdf:RDF>
         <cc:Work
            rdf:about="">
            <dc:format>image/svg+xml</dc:format>
            <dc:type
               rdf:resource="http://purl.org/dc/dcmitype/StillImage" />
         </cc:Work>
      </rdf:RDF>
   </metadata>
   <defs
      id="defs10" />
   <sodipodi:namedview
      pagecolor="#ffffff"
      bordercolor="#666666"
      borderopacity="1"
      objecttolerance="10"
      gridtolerance="10"
      guidetolerance="10"
      inkscape:pageopacity="0"
      inkscape:pageshadow="2"
      inkscape:window-width="1366"
      inkscape:window-height="738"
      id="namedview8"
      showgrid="false"
      inkscape:zoom="36.75"
      inkscape:cx="8"
      inkscape:cy="7.9863946"
      inkscape:window-x="0"
      inkscape:window-y="0"
      inkscape:window-maximized="1"
      inkscape:current-layer="svg6" />
   <g transform="translate(1.6,0) scale(0.8,1)">
      <path
         d="m 5 0 l 0 2 l -3 0 l 0 14 l 12 0 l 0 -14 l -3 0 l 0 -2 l -6 0 z m 5 3 l -1 5 l 3 0 l -6 7 l 1 -5 l -3 0 l 6 -7 z"
         style="fill:#bebebe;opacity:0.4"
         id="path2" />
      <path
         d="m 2 10 l 0 6 l 12 0 l 0 -6 l -3.719 0 l -4.281 5 l 1 -5 l -3 0 l -2 0 z"
         style="fill:#bebebe"
         id="path4" />
      <path
         style="fill:#8aaaf8;stroke-width:0.0272109;fill-opacity:1"
         d="M 2.0136054,12.993197 V 10 h 2.4857734 2.4857733 l -0.4990607,2.494649 c -0.2744832,1.372057 -0.4941061,2.499604 -0.4880506,2.50566 0.00606,0.0061 0.9763206,-1.116416 2.1561445,-2.49438 L 10.29932,10.00054 12.142857,10.00027 13.986395,10 v 2.993197 2.993198 H 8 2.0136054 Z"
         id="path837" />
   </g>
</svg>

<svg xmlns="http://www.w3.org/2000/svg" viewBox="0 0 16 16">
    <path d="M5 0v2H2v14h12V2h-3V0zm5 3L9 8h3l-6 7 1-5H4z" style="fill:#bebebe;opacity:.4" transform="matrix(.8 0 0 1 1.6 0)"/>
    <path d="M2 10v6h12v-6h-3.719L6 15l1-5H2" style="fill:#bebebe" transform="matrix(.8 0 0 1 1.6 0)"/>
    <path d="M2.014 12.993V10h4.971l-.499 2.495A127 127 0 0 0 5.998 15c.006.006.976-1.116 2.156-2.494L10.3 10h1.844L13.986 10v5.986H2.014Z" style="fill:#8aaaf8;stroke-width:.0272109;fill-opacity:1" transform="matrix(.8 0 0 1 1.6 0)"/>
</svg>
